logo/pumpkindb.svg

<?xml version="1.0" encoding="UTF-8"?>
<svg width="256px" height="326px" viewBox="0 0 256 326" version="1.1" xmlns="http://www.w3.org/2000/svg" xmlns:xlink="http://www.w3.org/1999/xlink" preserveAspectRatio="xMidYMid">
	<g>
		<path d="M235.066415,204.999379 C240.709704,140.496281 214.705821,85.5309007 176.985116,82.2307667 C139.264411,78.9306326 104.110947,128.545438 98.4676572,193.048536 C92.8243673,257.551635 118.82825,312.517015 156.548956,315.817149 C194.269661,319.117283 229.423125,269.502477 235.066415,204.999379 Z" fill="#D04B06"></path>
		<path d="M255.158589,204.99774 C260.801878,140.494642 234.797995,85.5292621 197.07729,82.2291281 C159.356585,78.928994 124.203121,128.543799 118.559831,193.046898 C112.916541,257.549996 138.920425,312.515376 176.64113,315.81551 C214.361835,319.115644 249.515299,269.500839 255.158589,204.99774 Z" fill="#C65C14"></path>
		<path d="M99.5584771,315.816665 C137.279182,312.516531 163.283065,257.551151 157.639776,193.048053 C151.996486,128.544955 116.843022,78.9301492 79.1223167,82.2302832 C41.4016114,85.5304173 15.3977284,140.495797 21.0410182,204.998896 C26.6843081,269.501994 61.8377718,319.116799 99.5584771,315.816665 Z" fill="#D04B06"></path>
		<path d="M79.4716694,315.814631 C117.192375,312.514497 143.196258,257.549117 137.552968,193.046018 C131.909678,128.54292 96.7562143,78.9281146 59.035509,82.2282486 C21.3148038,85.5283827 -4.68907928,140.493763 0.954210577,204.996861 C6.59750044,269.499959 41.7509642,319.114765 79.4716694,315.814631 Z" fill="#C65C14"></path>
		<path d="M254.978523,213.93336 C260.621813,149.430261 234.61793,94.4648814 196.897225,91.1647473 C159.176519,87.8646133 124.023056,137.479419 118.379766,201.982517 C112.736476,266.485615 138.740359,321.450995 176.461064,324.751129 C214.18177,328.051263 249.335233,278.436458 254.978523,213.93336 Z" fill="#F17008"></path>
		<path d="M97.9568814,121.30061 L95.3187797,97.2235932 C95.3187797,97.2235932 96.772339,84.3541695 123.279186,82.5101017 C149.786034,80.6660339 111.086644,23.4608814 111.086644,23.4608814 C111.086644,23.4608814 119.985898,-8.49138983 134.586576,2.87674576 C149.187254,14.2448814 149.773017,80.6616949 149.773017,80.6616949 C149.773017,80.6616949 159.18861,105.654237 160.156203,114.484068" fill="#8F6646"></path>
		<path d="M234.886349,213.934998 C240.529639,149.4319 214.525756,94.46652 176.805051,91.1663859 C139.084345,87.8662519 103.930882,137.481057 98.2875917,201.984156 C92.6443019,266.487254 118.648185,321.452634 156.36889,324.752768 C194.089595,328.052902 229.243059,278.438097 234.886349,213.934998 Z" fill="#F48D39"></path>
		<path d="M79.2881333,324.752162 C117.008839,321.452028 143.012722,266.486648 137.369432,201.983549 C131.726142,137.480451 96.5726781,87.8656457 58.8519729,91.1657797 C21.1312676,94.4659138 -4.87261544,149.431294 0.770674426,213.934392 C6.41396429,278.43749 41.567428,328.052296 79.2881333,324.752162 Z" fill="#F17008"></path>
		<path d="M99.3792634,324.753818 C137.099969,321.453684 163.103852,266.488304 157.460562,201.985206 C151.817272,137.482108 116.663808,87.8673021 78.943103,91.1674362 C41.2223978,94.4675703 15.2185147,149.43295 20.8618046,213.936049 C26.5050944,278.439147 61.6585581,328.053952 99.3792634,324.753818 Z" fill="#F48D39"></path>
		<ellipse fill="#F17008" cx="123.235797" cy="207.95878" rx="68.5602712" ry="117.239322"></ellipse>
		<circle fill="#F7F3F0" cx="127.305763" cy="159.796068" r="23.9294915"></circle>
		<circle fill="#160C06" cx="135.532475" cy="169.901559" r="8.22671186"></circle>
		<circle fill="#F9F6F4" cx="137.506712" cy="170.235661" r="2.54698305"></circle>
	</g>
</svg>

<svg viewBox="0 0 256 326" xmlns="http://www.w3.org/2000/svg"><path fill="#D04B06" d="M235.06 204.99c5.64-64.51-20.37-119.47-58.09-122.77 -37.73-3.31-72.88 46.31-78.52 110.81 -5.65 64.5 20.36 119.46 58.08 122.76 37.72 3.3 72.87-46.32 78.51-110.82Z"/><path fill="#C65C14" d="M255.15 204.99c5.64-64.51-20.37-119.47-58.09-122.77 -37.73-3.31-72.88 46.31-78.52 110.81 -5.65 64.5 20.36 119.46 58.08 122.76 37.72 3.3 72.87-46.32 78.51-110.82Z"/><path fill="#D04B06" d="M99.55 315.81c37.72-3.31 63.72-58.27 58.08-122.77 -5.65-64.51-40.8-114.12-78.52-110.82 -37.73 3.3-63.73 58.26-58.09 122.76 5.64 64.5 40.79 114.11 78.51 110.81Z"/><path fill="#C65C14" d="M79.47 315.81c37.72-3.31 63.72-58.27 58.08-122.77 -5.65-64.51-40.8-114.12-78.52-110.82C21.3 85.52-4.7 140.48.94 204.98c5.64 64.5 40.79 114.11 78.51 110.81Z"/><path fill="#F17008" d="M254.97 213.93c5.64-64.51-20.37-119.47-58.09-122.77 -37.73-3.31-72.88 46.31-78.52 110.81 -5.65 64.5 20.36 119.46 58.08 122.76 37.72 3.3 72.87-46.32 78.51-110.82Z"/><path fill="#8F6646" d="M97.95 121.3l-2.64-24.08s1.45-12.87 27.96-14.72c26.5-1.85-12.2-59.05-12.2-59.05s8.89-31.96 23.49-20.59c14.6 11.36 15.18 77.78 15.18 77.78s9.41 24.99 10.38 33.82"/><path fill="#F48D39" d="M234.88 213.93c5.64-64.51-20.37-119.47-58.09-122.77 -37.73-3.31-72.88 46.31-78.52 110.81 -5.65 64.5 20.36 119.46 58.08 122.76 37.72 3.3 72.87-46.32 78.51-110.82Z"/><path fill="#F17008" d="M79.28 324.75c37.72-3.31 63.72-58.27 58.08-122.77 -5.65-64.51-40.8-114.12-78.52-110.82C21.11 94.46-4.89 149.42.75 213.92c5.64 64.5 40.79 114.11 78.51 110.81Z"/><path fill="#F48D39" d="M99.37 324.75c37.72-3.31 63.72-58.27 58.08-122.77 -5.65-64.51-40.8-114.12-78.52-110.82 -37.73 3.3-63.73 58.26-58.09 122.76 5.64 64.5 40.79 114.11 78.51 110.81Z"/><path fill="#F17008" d="M123.23 90.71a68.56 117.23 0 1 0 0 234.47 68.56 117.23 0 1 0 0-234.48Z"/><path fill="#F7F3F0" d="M127.3 135.86a23.92 23.92 0 1 0 0 47.85 23.92 23.92 0 1 0 0-47.86Z"/><path fill="#160C06" d="M135.53 161.67a8.22 8.22 0 1 0 0 16.45 8.22 8.22 0 1 0 0-16.46Z"/><path fill="#F9F6F4" d="M137.5 167.68a2.54 2.54 0 1 0 0 5.09 2.54 2.54 0 1 0 0-5.1Z"/></svg>
